X: 1
T: Just Cruzing
R: reel
M: 4/4
L: 1/8
K: Dmaj
G |\
FA~A2 ABAG | FA~A2 BAGA | FA~A2 ABAF |1 GFEF GBA :|2 GFEF GB ||
ag |\
f2df eAce | dBGA BAAg | f2df eAcA | GAAG FDD ||
g |\
f2df eAcA | dBGA BAAF | G2BG FGAF | EAAG FDD |]
